X: 746
T: Old Joe Clark
C:Herschel Sizemore's version
B: jims roots
M:4/4
L:1/8
Q: 1/4=100
K:Amix
V:1 
|:"A"{_e}[e2e]ef gfgf | eafe cede | {_e}[ee]eeg fecd | "E"ee^gb geee |
"A"c'b^gb "E"aeee | "A"agfe "D"dffa | "A"edcf "E"ecBc |[1 A2"A"AA A2{_e}[ee][ee] :|[2 A2"A"AA A2{_e}F^G ||
"A"AAA2 A2AB | ceef ecAF | EAAB "E (G)"=cBAF | "A"EF^GB AFED |
"A"{^G}AAAB AFFB | Acde f^gaf | edcf "E"ecBc | "A"A2AA [F2A][FA][^GA] ||
"A"[A2A][A2A] A2AB | cAce cBAF | EFAB "E (G)"=cBAF | "A"E2AB =cAFA |
"A"{G}A2AB ABAc | def^g afed | dfec "E"B^GGB | "A"A2AA A2 cd ||
% abcbook-tune_id 6298c27923eb8a42bace4d0b


% abcbook-boost 0
% abcbook-tablature 
% abcbook-transpose 
% abcbook-lastupdated 1654178425949
% abcbook-soundfonts 
% abcbook-repeats 1


